X: 2
T: Garrykennedy Castle
M: 4/4
L: 1/8
R: reel
K: Gmaj
|: DF |\
GBd^c edcd | BGFG DGBG | cBce agfe | dA^ce d=cBc |
dgfg bgdB | cBec dBGB | ADFA d^ced | cDEF G2 :|
|: Bc |\
dgfg dgbg | dBGB DGBd | ceAG FAd^c | ed^ce dAB=c |
dgfg dBGB | A^GAB cea=g | fed^c =cDEF | GFBA G2 :|
